launcher/android/assets/skins/day/svg/mapEarth2.svg

<svg enable-background="new 0 0 258.00 258.00" height="258" viewBox="0 0 258 258" width="258" xmlns="http://www.w3.org/2000/svg" xmlns:xlink="http://www.w3.org/1999/xlink"><linearGradient id="a" gradientTransform="matrix(0 -1 1 0 -.581108 1.581108)" gradientUnits="objectBoundingBox" x1=".5" x2="1.66222" y1="1.08111" y2="1.08111"><stop offset="0" stop-color="#abc4ab"/><stop offset=".771552" stop-color="#d5e1d5"/><stop offset="1" stop-color="#fff"/></linearGradient><radialGradient id="b" cx="157.3" cy="109.999" gradientTransform="matrix(0 -1 1 0 47.300903 267.299683)" gradientUnits="userSpaceOnUse" r="97.946"><stop offset="0" stop-color="#fffdfd"/><stop offset=".731481" stop-color="#fff"/><stop offset=".805556" stop-color="#ffb600"/><stop offset=".925926" stop-color="#ffb600"/><stop offset="1" stop-color="#ffe45c"/></radialGradient><linearGradient id="c"><stop offset="0" stop-color="#fffdfd"/><stop offset=".606481" stop-color="#fff"/><stop offset=".699074" stop-color="#ffb600"/><stop offset=".925926" stop-color="#ffb600"/><stop offset="1" stop-color="#ffe45c"/></linearGradient><radialGradient id="d" cx="135.603" cy="127.558" gradientUnits="userSpaceOnUse" r="66.094" xlink:href="#c"/><radialGradient id="e" cx="150.218" cy="111.609" gradientUnits="userSpaceOnUse" r="56.2666" xlink:href="#c"/><g stroke-linejoin="bevel"><path d="m44 4h170c22.092 0 40 17.9086 40 39.9999v170.0001c0 22.091-17.908 40-40 40h-170c-22.0914 0-40-17.909-40-40v-170.0001c0-22.0913 17.9086-39.9999 40-39.9999z" fill="url(#a)" stroke="#000" stroke-linecap="square" stroke-width="8"/><ellipse cx="131.502" cy="130.232" fill="#a0d4e0" rx="89.9011" ry="90.2144" stroke="#000" stroke-width="5"/><path d="m212.828 134.735-4.933 2.819-2.35 2.115-.705 8.457 1.645 6.578-1.175 3.994-2.819 3.054-1.879 4.464-3.055 2.819-2.584 1.645-6.813.47-2.584-2.82-5.873-2.584-8.223-.705-4.699-2.349-5.873-.235-6.343 2.584-3.759 2.585-1.88 5.638.94 4.934 1.879 3.524-1.409 3.524-3.054 1.879-1.645 4.464 1.175 7.753 2.114 3.289-1.644 3.524-2.35 3.054-2.584 4.229.705 4.229.196.81c41.837-6.384 74.199-41.704 76.179-84.979l-1.432.062z" fill="#205910" stroke-width=".2"/><path d="m97.7107 59.7911.47-7.518-2.3953-4.0122c-30.0505 13.9018-51.1536 43.9544-52.2595 79.0691l4.3789.592 5.1684-.705 3.9941-3.289 2.1143-3.289 1.8794-4.464 2.8192-2.114.705-6.108 1.8794-5.639 3.524-3.289 3.2891-.7047 3.0541 1.4096 3.0542 2.5841 5.4034.47 5.8732-.47 2.1145-4.2287 4.6987-3.5239 3.2892-4.9336 2.349-6.1084-.47-7.5178-1.409-4.4639-3.5243-4.2286z" fill="#205910" stroke-width=".2"/><path d="m151.946 125.572-.626.446-5.102 1.686-35.427 23.124-3.071-15.697-1.747-20.194 1.133-15.1748 3.118-18.0655 6.518-14.2118 7.936-15.1752 9.07-12.0436 2.377 2.1997 13.141 83.1402z" fill="url(#b)" stroke="#000" stroke-width="5"/><path d="m135.183 117.859 85.417 11.474c-.978-47.0607-37.866-85.2617-84.279-88.1251z" fill="url(#d)" stroke="#000" stroke-width="5"/><path d="m135.03 116.048-.435.519-1.644 4.229-22.554 29.366 15.31 2.545 19.695 1.449 14.801-.94 17.62-2.584 13.861-5.403 14.801-6.578 11.747-7.518-2.146-1.971-81.089-10.892z" fill="url(#e)" stroke="#000" stroke-width="5"/></g><path d="m218.183 54.0731h-5.263v14.9982h-4.21v-14.9982h-5.262v-3.4206h14.735z" stroke-linejoin="round" stroke-width=".2"/><path d="m241.601 69.0713h-4.21v-11.0225c0-1.1895.054-2.5039.161-3.9428h-.103c-.214 1.1319-.407 1.9461-.58 2.4422l-4.317 12.5231h-3.392l-4.395-12.3956c-.12-.3345-.313-1.191-.579-2.5697h-.115c.109 1.8172.164 3.4111.164 4.7816v10.1837h-3.684v-18.4188h6.023l3.762 10.9198c.302.8715.521 1.7486.658 2.6312h.078c.23-1.0195.474-1.9063.732-2.66l3.762-10.891h6.035z" stroke-linejoin="round" stroke-width=".2"/></svg>

﻿<?xml version="1.0" encoding="utf-8"?>
<!DOCTYPE svg PUBLIC "-//W3C//DTD SVG 1.1//EN" "http://www.w3.org/Graphics/SVG/1.1/DTD/svg11.dtd">
<svg xmlns="http://www.w3.org/2000/svg" xmlns:xlink="http://www.w3.org/1999/xlink" version="1.1" baseProfile="full" width="258" height="258" viewBox="0 0 258.00 258.00" enable-background="new 0 0 258.00 258.00" xml:space="preserve">
	<linearGradient id="SVGID_Fill1_" gradientUnits="objectBoundingBox" x1="0.5" y1="1.08111" x2="1.66222" y2="1.08111" gradientTransform="rotate(-90.000000 0.500000 1.081108)">
		<stop offset="0" stop-color="#ABC4AB" stop-opacity="1"/>
		<stop offset="0.771552" stop-color="#D5E1D5" stop-opacity="1"/>
		<stop offset="1" stop-color="#FFFFFF" stop-opacity="1"/>
	</linearGradient>
	<path fill="url(#SVGID_Fill1_)" stroke-width="8" stroke-linecap="square" stroke-linejoin="bevel" stroke="#000000" stroke-opacity="1" d="M 44,4L 214,4C 236.092,4 254,21.9086 254,43.9999L 254,214C 254,236.091 236.092,254 214,254L 44,254C 21.9086,254 4,236.091 4,214L 4,43.9999C 4,21.9086 21.9086,4 44,4 Z "/>
	<g>
		<ellipse fill="#A0D4E0" fill-opacity="1" stroke-width="5" stroke-linejoin="bevel" stroke="#000000" stroke-opacity="1" cx="131.502" cy="130.232" rx="89.9011" ry="90.2144"/>
		<path fill="#205910" fill-opacity="1" stroke-width="0.2" stroke-linejoin="bevel" d="M 212.828,134.735L 207.895,137.554L 205.545,139.669L 204.84,148.126L 206.485,154.704L 205.31,158.698L 202.491,161.752L 200.612,166.216L 197.557,169.035L 194.973,170.68L 188.16,171.15L 185.576,168.33L 179.703,165.746L 171.48,165.041L 166.781,162.692L 160.908,162.457L 154.565,165.041L 150.806,167.626L 148.926,173.264L 149.866,178.198L 151.745,181.722L 150.336,185.246L 147.282,187.125L 145.637,191.589L 146.812,199.342L 148.926,202.631L 147.282,206.155L 144.932,209.209L 142.348,213.438L 143.053,217.667L 143.249,218.477C 185.086,212.093 217.448,176.773 219.428,133.498L 217.996,133.56L 212.828,134.735 Z "/>
		<path fill="#205910" fill-opacity="1" stroke-width="0.2" stroke-linejoin="bevel" d="M 97.7107,59.7911L 98.1807,52.2731L 95.7854,48.2609C 65.7349,62.1627 44.6318,92.2153 43.5259,127.33L 47.9048,127.922L 53.0732,127.217L 57.0673,123.928L 59.1816,120.639L 61.061,116.175L 63.8802,114.061L 64.5852,107.953L 66.4646,102.314L 69.9886,99.025L 73.2777,98.3203L 76.3318,99.7299L 79.386,102.314L 84.7894,102.784L 90.6626,102.314L 92.7771,98.0853L 97.4758,94.5614L 100.765,89.6278L 103.114,83.5194L 102.644,76.0016L 101.235,71.5377L 97.7107,67.3091L 97.7107,59.7911 Z "/>
		<radialGradient id="SVGID_Fill2_" cx="157.3" cy="109.999" r="97.946" gradientUnits="userSpaceOnUse" gradientTransform="rotate(-90.000000 157.300293 109.999390)">
			<stop offset="0" stop-color="#FFFDFD" stop-opacity="1"/>
			<stop offset="0.731481" stop-color="#FFFFFF" stop-opacity="1"/>
			<stop offset="0.805556" stop-color="#FFB600" stop-opacity="1"/>
			<stop offset="0.925926" stop-color="#FFB600" stop-opacity="1"/>
			<stop offset="1" stop-color="#FFE45C" stop-opacity="1"/>
		</radialGradient>
		<path fill="url(#SVGID_Fill2_)" stroke-width="5" stroke-linejoin="bevel" stroke="#000000" stroke-opacity="1" d="M 151.946,125.572L 151.32,126.018L 146.218,127.704L 110.791,150.828L 107.72,135.131L 105.973,114.937L 107.106,99.7622L 110.224,81.6967L 116.742,67.4849L 124.678,52.3097L 133.748,40.2661L 136.125,42.4658L 149.266,125.606L 151.946,125.572 Z "/>
		<radialGradient id="SVGID_Fill3_" cx="135.603" cy="127.558" r="66.094" gradientUnits="userSpaceOnUse">
			<stop offset="0" stop-color="#FFFDFD" stop-opacity="1"/>
			<stop offset="0.606481" stop-color="#FFFFFF" stop-opacity="1"/>
			<stop offset="0.699074" stop-color="#FFB600" stop-opacity="1"/>
			<stop offset="0.925926" stop-color="#FFB600" stop-opacity="1"/>
			<stop offset="1" stop-color="#FFE45C" stop-opacity="1"/>
		</radialGradient>
		<path fill="url(#SVGID_Fill3_)" stroke-width="5" stroke-linejoin="bevel" stroke="#000000" stroke-opacity="1" d="M 135.183,117.859L 220.6,129.333C 219.622,82.2723 182.734,44.0713 136.321,41.2079L 135.183,117.859 Z "/>
		<radialGradient id="SVGID_Fill4_" cx="150.218" cy="111.609" r="56.2666" gradientUnits="userSpaceOnUse">
			<stop offset="0" stop-color="#FFFDFD" stop-opacity="1"/>
			<stop offset="0.606481" stop-color="#FFFFFF" stop-opacity="1"/>
			<stop offset="0.699074" stop-color="#FFB600" stop-opacity="1"/>
			<stop offset="0.925926" stop-color="#FFB600" stop-opacity="1"/>
			<stop offset="1" stop-color="#FFE45C" stop-opacity="1"/>
		</radialGradient>
		<path fill="url(#SVGID_Fill4_)" stroke-width="5" stroke-linejoin="bevel" stroke="#000000" stroke-opacity="1" d="M 135.03,116.048L 134.595,116.567L 132.951,120.796L 110.397,150.162L 125.707,152.707L 145.402,154.156L 160.203,153.216L 177.823,150.632L 191.684,145.229L 206.485,138.651L 218.232,131.133L 216.086,129.162L 134.997,118.27L 135.03,116.048 Z "/>
		<g>
			<path fill="#000000" fill-opacity="1" stroke-width="0.2" stroke-linejoin="round" d="M 218.183,54.0731L 212.92,54.0731L 212.92,69.0713L 208.71,69.0713L 208.71,54.0731L 203.448,54.0731L 203.448,50.6525L 218.183,50.6525L 218.183,54.0731 Z "/>
			<path fill="#000000" fill-opacity="1" stroke-width="0.2" stroke-linejoin="round" d="M 241.601,69.0713L 237.391,69.0713L 237.391,58.0488C 237.391,56.8593 237.445,55.5449 237.552,54.106L 237.449,54.106C 237.235,55.2379 237.042,56.0521 236.869,56.5482L 232.552,69.0713L 229.16,69.0713L 224.765,56.6757C 224.645,56.3412 224.452,55.4847 224.186,54.106L 224.071,54.106C 224.18,55.9232 224.235,57.5171 224.235,58.8876L 224.235,69.0713L 220.551,69.0713L 220.551,50.6525L 226.574,50.6525L 230.336,61.5723C 230.638,62.4438 230.857,63.3209 230.994,64.2035L 231.072,64.2035C 231.302,63.184 231.546,62.2972 231.804,61.5435L 235.566,50.6525L 241.601,50.6525L 241.601,69.0713 Z "/>
		</g>
	</g>
</svg>
